X:2
T:Bonnie Dundee
M:6/8
Q:3/8=56
K:D
e3
|:{/g}c/4d3/4|{/g}e2{/GdG}e1 {/gef}e3/2{/g}c/2e1|a3/2g/2{/a}f1 {/gef}e2d1|{/g}c/2e3/2{/g}A1 {/g}c/2e3/2c1|{/g}B2{/GdGe}B1 {/gBd}B3/2{/g}c/2d1|!
{/g}e2{/GdG}e1 {/gef}e3/2{/g}c/2e1|a3/2g/2{/a}f1{/gef}e2d1|{/g}c/2e3/2{/g}A1 {/g}c/2e3/2c1|{/g}A2{/GdGe}A1{/GAG}A2:|!
|:G1|{/g}A2{/GdGe}A1{/Gdc}d2c1|{/g}B2{/GdGe}B1{/gBd}B3|{/g}B2{/GdGe}B1 {/g}B3/2c/2d1|{/g}c2{/GdGe}c1{/gcd}c2{/e}A1|!
{/gcd}c3/2{/e}B/2{/d}c1 {/Gdc}d3/2{/g}c/2d1|{/g}e2{/GdG}e1 {/gfg}f3/2e/2d1|{/g}c/2e3/2{/g}A1 {/g}c/2e3/2c1|{/g}A2{/GdGe}A1{/GAG}A2:|

